app/component-library/components/Icons/Icon/assets/card-pos.svg

<svg width="24" height="24" viewBox="0 0 24 24" fill="none" xmlns="http://www.w3.org/2000/svg">
<path d="M22.2808 21.25C22.2808 21.66 21.9408 22 21.5308 22H3.03076C2.62076 22 2.28076 21.66 2.28076 21.25C2.28076 20.84 2.62076 20.5 3.03076 20.5H21.5308C21.9408 20.5 22.2808 20.84 22.2808 21.25Z" fill="currentColor"/>
<path d="M15.6712 4.51977L4.93119 15.2598C4.52119 15.6698 3.86119 15.6698 3.46119 15.2598H3.45119C2.06119 13.8598 2.06119 11.5998 3.45119 10.2098L10.6012 3.05977C12.0012 1.65977 14.2612 1.65977 15.6612 3.05977C16.0712 3.44977 16.0712 4.11977 15.6712 4.51977Z" fill="currentColor"/>
<path d="M21.1012 8.48982L18.0512 5.43982C17.6412 5.02982 16.9812 5.02982 16.5812 5.43982L5.84119 16.1798C5.43119 16.5798 5.43119 17.2398 5.84119 17.6498L8.89119 20.7098C10.2912 22.0998 12.5512 22.0998 13.9512 20.7098L21.0912 13.5598C22.5112 12.1598 22.5112 9.88982 21.1012 8.48982ZM13.0412 17.5198L11.8312 18.7398C11.5812 18.9898 11.1712 18.9898 10.9112 18.7398C10.6612 18.4898 10.6612 18.0798 10.9112 17.8198L12.1312 16.5998C12.3712 16.3598 12.7912 16.3598 13.0412 16.5998C13.2912 16.8498 13.2912 17.2798 13.0412 17.5198ZM17.0112 13.5498L14.5712 15.9998C14.3212 16.2398 13.9112 16.2398 13.6512 15.9998C13.4012 15.7498 13.4012 15.3398 13.6512 15.0798L16.1012 12.6298C16.3412 12.3898 16.7612 12.3898 17.0112 12.6298C17.2612 12.8898 17.2612 13.2998 17.0112 13.5498Z" fill="currentColor"/>
</svg>

<svg xmlns="http://www.w3.org/2000/svg" width="24" height="24" viewBox="0 0 24 24" fill="none"><path d="M22.28 21.25c0 .41-.34.75-.75.75H3.03c-.41 0-.75-.34-.75-.75s.34-.75.75-.75h18.5c.41 0 .75.34.75.75zM15.671 4.52 4.931 15.26c-.41.41-1.07.41-1.47 0h-.01a3.58 3.58 0 0 1 0-5.05l7.15-7.15c1.4-1.4 3.66-1.4 5.06 0 .41.39.41 1.06.01 1.46z" fill="currentColor"/><path d="m21.101 8.49-3.05-3.05c-.41-.41-1.07-.41-1.47 0L5.841 16.18c-.41.4-.41 1.06 0 1.47l3.05 3.06a3.591 3.591 0 0 0 5.06 0l7.14-7.15c1.42-1.4 1.42-3.67.01-5.07zm-8.06 9.03-1.21 1.22c-.25.25-.66.25-.92 0a.658.658 0 0 1 0-.92l1.22-1.22c.24-.24.66-.24.91 0 .25.25.25.68 0 .92zm3.97-3.97L14.571 16c-.25.24-.66.24-.92 0a.658.658 0 0 1 0-.92l2.45-2.45c.24-.24.66-.24.91 0 .25.26.25.67 0 .92z" fill="currentColor"/></svg>
